X: 626
T: Guanggunr kuqi
L: 1/8
M: 2/4
K: A
e e/ e/ a f [I:setbarnb 1]| 
a cB2 | 
A> B a c | 
A cB2 | 
A> B a f | 
e f e e | 
B e B B | 
A FE2 | 
B> B B f | 
e> e B e | 
F A B3/ c/ | 
A FE2 |]

@@@ Tune index: 9500
